X: 1
T: Prince Of Seals
M: 6/8
L: 1/8
R: jig
K: Amaj
|:e | fae fce | BcA BFA | Bcc BAF | AFE E2e |
fae fce | BcA BFA | BcA BAF | EFG A2 :|
|: z | FAc aec | Gce g3 | gae dcA | gae B2A |
FAc aec | Gce g2e |  fae fce | BAG A2 :|
